COLOR/apps 16/16/python.svg

<svg height="16" viewBox="0 0 4.233125 4.233125" width="16" xmlns="http://www.w3.org/2000/svg"><g transform="matrix(.25881878 0 0 .25881878 -57.122887 -30.724096)"><g stroke-width=".13044"><path d="m232.71722 123.05336v1.91667c0 1.06183-.85483 1.91666-1.91667 1.91666h-3.83333s-1.91667 0-1.91667 1.91667v3.35417c0 1.32761 1.49628 2.39583 3.35417 2.39583h.95833c1.85789 0 3.35417-1.06822 3.35417-2.39583v-1.4375h1.4375c1.32761 0 2.39583-1.49628 2.39583-3.35417v-.95833c0-1.85789-1.06822-3.35417-2.39583-3.35417z" fill="#fdc92b"/><path d="m230.80055 131.9978a.63888891.63888891 0 0 1 .63889.63889.63888891.63888891 0 0 1 -.63889.63889.63888891.63888891 0 0 1 -.63889-.63889.63888891.63888891 0 0 1 .63889-.63889z" fill="#fff"/><path d="m228.40472 119.22003c-1.85789 0-3.35417 1.06854-3.35417 2.39583v1.4375h-1.4375c-1.32729 0-2.39583 1.49628-2.39583 3.35417v.95833c0 1.85789 1.06854 3.35417 2.39583 3.35417h1.4375v-1.91667c0-1.06183.85484-1.91667 1.91667-1.91667h3.83333s1.91667 0 1.91667-1.91666v-3.35417c0-1.32729-1.49628-2.39583-3.35417-2.39583z" fill="#1a7fd4"/><path d="m226.96722 120.4978a.63888891.63888891 0 0 1 .63889.63889.63888891.63888891 0 0 1 -.63889.63889.63888891.63888891 0 0 1 -.63889-.63889.63888891.63888891 0 0 1 .63889-.63889z" fill="#fff"/></g><path d="m.5 7.96875v.5c0 1.817501 1.0453142 3.28125 2.34375 3.28125h1.40625v-.5h-1.40625c-1.2984358 0-2.34375-1.4637489-2.34375-3.28125zm15 0c0 1.8175011-1.045001 3.28125-2.34375 3.28125h-1.40625v.5h1.40625c1.298749 0 2.34375-1.463749 2.34375-3.28125zm-11.25 4.6875v.5c0 1.298749 1.463749 2.34375 3.28125 2.34375h.9375c1.817501 0 3.28125-1.045001 3.28125-2.34375v-.5c0 1.298749-1.463749 2.34375-3.28125 2.34375h-.9375c-1.8175011 0-3.28125-1.045001-3.28125-2.34375z" opacity=".2" stroke-width=".127604" transform="matrix(1.0222222 0 0 1.0222222 220.70611 118.70891)"/><path d="m7.53125.5c-1.817501 0-3.28125 1.0453142-3.28125 2.34375v.5c0-1.2984358 1.4637489-2.34375 3.28125-2.34375h.9375c1.817501 0 3.28125 1.0453142 3.28125 2.34375v-.5c0-1.2984358-1.463749-2.34375-3.28125-2.34375zm-4.6875 3.75c-1.2984358 0-2.34375 1.463749-2.34375 3.28125v.5c0-1.8175011 1.0453142-3.28125 2.34375-3.28125h1.40625v-.5zm8.90625 0v.5h1.40625c1.298749 0 2.34375 1.4637489 2.34375 3.28125v-.5c0-1.817501-1.045001-3.28125-2.34375-3.28125z" fill="#fff" opacity=".3" stroke-width=".127604" transform="matrix(1.0222222 0 0 1.0222222 220.70611 118.70891)"/></g></svg>

<?xml version="1.0" encoding="UTF-8" standalone="no"?>
<svg
   xmlns:dc="http://purl.org/dc/elements/1.1/"
   xmlns:cc="http://creativecommons.org/ns#"
   xmlns:rdf="http://www.w3.org/1999/02/22-rdf-syntax-ns#"
   xmlns:svg="http://www.w3.org/2000/svg"
   xmlns="http://www.w3.org/2000/svg"
   xmlns:xlink="http://www.w3.org/1999/xlink"
   xmlns:sodipodi="http://sodipodi.sourceforge.net/DTD/sodipodi-0.dtd"
   xmlns:inkscape="http://www.inkscape.org/namespaces/inkscape"
   height="16"
   viewBox="0 0 4.233125 4.233125"
   width="16"
   version="1.1"
   id="svg41"
   sodipodi:docname="python16.svg"
   inkscape:version="0.92.4 (5da689c313, 2019-01-14)">
  <metadata
     id="metadata47">
    <rdf:RDF>
      <cc:Work
         rdf:about="">
        <dc:format>image/svg+xml</dc:format>
        <dc:type
           rdf:resource="http://purl.org/dc/dcmitype/StillImage" />
        <dc:title></dc:title>
      </cc:Work>
    </rdf:RDF>
  </metadata>
  <defs
     id="defs45">
    <linearGradient
       inkscape:collect="always"
       xlink:href="#a"
       id="linearGradient932"
       gradientUnits="userSpaceOnUse"
       x1="244.6226"
       y1="87.591713"
       x2="243.4373"
       y2="123.18109"
       gradientTransform="rotate(180,245.05097,110.89984)" />
  </defs>
  <sodipodi:namedview
     pagecolor="#ffffff"
     bordercolor="#666666"
     borderopacity="1"
     objecttolerance="10"
     gridtolerance="10"
     guidetolerance="10"
     inkscape:pageopacity="0"
     inkscape:pageshadow="2"
     inkscape:window-width="1920"
     inkscape:window-height="1016"
     id="namedview43"
     showgrid="false"
     inkscape:zoom="17.520833"
     inkscape:cx="24"
     inkscape:cy="12.585018"
     inkscape:window-x="0"
     inkscape:window-y="27"
     inkscape:window-maximized="1"
     inkscape:current-layer="g888" />
  <linearGradient
     id="a"
     gradientTransform="matrix(0.06326681,0,0,0.06326678,5.16858,3.2745902)"
     gradientUnits="userSpaceOnUse"
     x1="96"
     x2="96"
     y1="4.0000062"
     y2="188">
    <stop
       offset="0"
       stop-color="#fff"
       id="stop2" />
    <stop
       offset=".125"
       stop-color="#fff"
       stop-opacity=".098039"
       id="stop4" />
    <stop
       offset=".92500001"
       stop-color="#fff"
       stop-opacity=".098039"
       id="stop6" />
    <stop
       offset="1"
       stop-color="#fff"
       stop-opacity=".498039"
       id="stop8" />
  </linearGradient>
  <clipPath
     id="b">
    <path
       d="M 351.93164,62.5 C 365.55326,62.5 367.5,64.44187 367.5,78.05078 V 89.94922 C 367.5,103.55808 365.55326,105.5 351.93164,105.5 H 336.06836 C 322.44674,105.5 320.5,103.55808 320.5,89.94922 V 78.05078 C 320.5,64.44187 322.44674,62.5 336.06836,62.5 Z"
       id="path11"
       inkscape:connector-curvature="0" />
  </clipPath>
  <linearGradient
     id="c"
     gradientTransform="matrix(0.24998771,0,0,0.2499878,0.132288,-61.811547)"
     gradientUnits="userSpaceOnUse"
     x1="13.735326"
     x2="38.099998"
     y1="249.69423"
     y2="292.76666">
    <stop
       offset="0"
       stop-color="#8c59d9"
       id="stop14" />
    <stop
       offset="1"
       stop-color="#a7a7f1"
       id="stop16" />
  </linearGradient>
  <g
     id="g35"
     style="fill:#ffffff"
     transform="translate(0,-8.46625)" />
  <g
     id="g888"
     transform="matrix(0.25881878,0,0,0.25881878,-57.122887,-30.724096)">
    <path
       inkscape:connector-curvature="0"
       id="path2"
       d="m 232.71722,123.05336 v 1.91667 c 0,1.06183 -0.85483,1.91666 -1.91667,1.91666 h -3.83333 c 0,0 -1.91667,0 -1.91667,1.91667 v 3.35417 c 0,1.32761 1.49628,2.39583 3.35417,2.39583 h 0.95833 c 1.85789,0 3.35417,-1.06822 3.35417,-2.39583 v -1.4375 h 1.4375 c 1.32761,0 2.39583,-1.49628 2.39583,-3.35417 v -0.95833 c 0,-1.85789 -1.06822,-3.35417 -2.39583,-3.35417 z"
       style="fill:#fdc92b;fill-opacity:1;stroke-width:0.13043982" />
    <path
       inkscape:connector-curvature="0"
       id="path6"
       d="m 230.80055,131.9978 a 0.63888891,0.63888891 0 0 1 0.63889,0.63889 0.63888891,0.63888891 0 0 1 -0.63889,0.63889 0.63888891,0.63888891 0 0 1 -0.63889,-0.63889 0.63888891,0.63888891 0 0 1 0.63889,-0.63889 z"
       style="fill:#ffffff;stroke-width:0.13043982" />
    <path
       inkscape:connector-curvature="0"
       id="path8"
       d="m 228.40472,119.22003 c -1.85789,0 -3.35417,1.06854 -3.35417,2.39583 v 1.4375 h -1.4375 c -1.32729,0 -2.39583,1.49628 -2.39583,3.35417 v 0.95833 c 0,1.85789 1.06854,3.35417 2.39583,3.35417 h 1.4375 v -1.91667 c 0,-1.06183 0.85484,-1.91667 1.91667,-1.91667 h 3.83333 c 0,0 1.91667,0 1.91667,-1.91666 v -3.35417 c 0,-1.32729 -1.49628,-2.39583 -3.35417,-2.39583 z"
       style="fill:#1a7fd4;fill-opacity:1;stroke-width:0.13043982" />
    <path
       inkscape:connector-curvature="0"
       id="path12"
       d="m 226.96722,120.4978 a 0.63888891,0.63888891 0 0 1 0.63889,0.63889 0.63888891,0.63888891 0 0 1 -0.63889,0.63889 0.63888891,0.63888891 0 0 1 -0.63889,-0.63889 0.63888891,0.63888891 0 0 1 0.63889,-0.63889 z"
       style="fill:#ffffff;stroke-width:0.13043982" />
    <path
       style="fill:#000000;fill-opacity:1;stroke-width:0.12760417;opacity:0.2"
       d="M 0.5 7.96875 L 0.5 8.46875 C 0.5 10.286251 1.5453142 11.75 2.84375 11.75 L 4.25 11.75 L 4.25 11.25 L 2.84375 11.25 C 1.5453142 11.25 0.5 9.7862511 0.5 7.96875 z M 15.5 7.96875 C 15.5 9.7862511 14.454999 11.25 13.15625 11.25 L 11.75 11.25 L 11.75 11.75 L 13.15625 11.75 C 14.454999 11.75 15.5 10.286251 15.5 8.46875 L 15.5 7.96875 z M 4.25 12.65625 L 4.25 13.15625 C 4.25 14.454999 5.713749 15.5 7.53125 15.5 L 8.46875 15.5 C 10.286251 15.5 11.75 14.454999 11.75 13.15625 L 11.75 12.65625 C 11.75 13.954999 10.286251 15 8.46875 15 L 7.53125 15 C 5.7137489 15 4.25 13.954999 4.25 12.65625 z "
       transform="matrix(1.0222222,0,0,1.0222222,220.70611,118.70891)"
       id="path978" />
    <path
       style="fill:#ffffff;fill-opacity:1;stroke-width:0.12760417;opacity:0.3"
       d="M 7.53125 0.5 C 5.713749 0.5 4.25 1.5453142 4.25 2.84375 L 4.25 3.34375 C 4.25 2.0453142 5.7137489 1 7.53125 1 L 8.46875 1 C 10.286251 1 11.75 2.0453142 11.75 3.34375 L 11.75 2.84375 C 11.75 1.5453142 10.286251 0.5 8.46875 0.5 L 7.53125 0.5 z M 2.84375 4.25 C 1.5453142 4.25 0.5 5.713749 0.5 7.53125 L 0.5 8.03125 C 0.5 6.2137489 1.5453142 4.75 2.84375 4.75 L 4.25 4.75 L 4.25 4.25 L 2.84375 4.25 z M 11.75 4.25 L 11.75 4.75 L 13.15625 4.75 C 14.454999 4.75 15.5 6.2137489 15.5 8.03125 L 15.5 7.53125 C 15.5 5.713749 14.454999 4.25 13.15625 4.25 L 11.75 4.25 z "
       transform="matrix(1.0222222,0,0,1.0222222,220.70611,118.70891)"
       id="path982" />
  </g>
</svg>
